X: 1
C: Automated Musicians
K: BM
T: spry-chachalaca-of-enjoyable-domination
M: 4/4
V:1
[Bd#f#]4 [A#df]4 | [Bd#f#]4 [A#df]4 | [D#GA#]2 [D#GA#]2 [C#FG#]2 [C#FG#]2 | [B,D#F#]2 [B,D#F#]2 [B,D#F#]2 [d#ga#]2 | 
[Bd#f#]4 [A#df]4 | [Bd#f#]4 [A#df]4 | [D#GA#]2 [D#GA#]2 [C#FG#]2 [C#FG#]2 | [B,D#F#]2 [B,D#F#]2 [B,D#F#]2 [d#ga#]2 | 
[Bd#f#]4 [A#df]4 | [Bd#f#]4 [A#df]4 | [D#GA#]2 [D#GA#]2 [C#FG#]2 [C#FG#]2 | [B,D#F#]2 [B,D#F#]2 [B,D#F#]2 [d#ga#]2 ||
V:2
 B8 |  B8 |  D#8 |  B,8 ||
